X:1
T:Jesus, Meine Zuversicht, 78.78.77
T:Jesus, Meine Zuversicht, 78.78.77
T:Johann Crüger, 1653
T:Public Domain Courtesy of the Cyber Hymnal™
C:Johann Crüger, 1653
Z:Public Domain
Z:Courtesy of the Cyber Hymnal™
%%score ( 1 2 ) ( 3 4 )
L:1/8
M:4/4
K:C
V:1 treble 
V:2 treble 
V:3 bass 
V:4 bass 
V:1
 [EG]4 [CE]4 | [CA]2 [FB]2 [Ec]3 [Dc] | [DB]6 z2 | [DA]4 [Ec]4 | [FA]2 [DG]2 [CF]2 [CE]2 | D4 C4 | %6
 [EG]4 [CE]4 | [CA]2 [FB]2 [Ec]3 [Dc] | [DB]6 z2 | [DA]4 [Ec]4 | [FA]2 [DG]2 [CF]2 [CE]2 | D4 C4 | %12
 [CE]4 [D^F]4 | [DG]2 [EA]2 [FA]2 [E^G]2 | [EA]4 [EB]2 [Ec]2 | [Gd]2 [Ge]2 [Ad]2 [Gd]2 | [Ec]8 |] %17
V:2
 x8 | x8 | x8 | x8 | x8 | (C2 B,2) C4 | x8 | x8 | x8 | x8 | x8 | (C2 B,2) C4 | x8 | x8 | x8 | x8 | %16
 x8 |] %17
V:3
 [C,C]4 [C,G,]4 | F,2 [D,G,]2 [C,G,]3 [A,,^F,] | [G,,G,]6 z2 | [D,F,]4 [C,G,]4 | %4
 [F,,C]2 [G,,B,]2 [A,,A,]2 [C,G,]2 | [G,,G,]4 [C,E,]4 | [C,C]4 [E,G,]4 | %7
 F,2 [D,G,]2 [C,G,]3 [^A,,^F,] | [G,,G,]6 z2 | [D,F,]4 [C,G,]4 | %10
 [F,,C]2 [G,,B,]2 [A,,A,]2 [C,G,]2 | [G,,G,]4 [C,E,]4 | [C,G,]4 [A,,C]4 | %13
 [B,,B,]2 [^C,A,]2 [D,D]2 [E,B,]2 | [A,,^C]4 [E,^G,]2 A,2 | [G,B,]2 [C,C]2 [F,C]2 [G,B,]2 | %16
 [C,G,]8 |] %17
V:4
 x8 | ^F,2 x6 | x8 | x8 | x8 | x8 | x8 | ^F,2 x6 | x8 | x8 | x8 | x8 | x8 | x8 | x6 A,2 | x8 | %16
 x8 |] %17

